src/static/logos/blocs.svg

<?xml version="1.0" encoding="UTF-8" standalone="no"?>
<svg width="256px" height="283px" viewBox="0 0 256 283" version="1.1" xmlns="http://www.w3.org/2000/svg" xmlns:xlink="http://www.w3.org/1999/xlink" preserveAspectRatio="xMidYMid">
	<g>
		<path d="M128.337681,0.0776964981 C121.636856,0.0776964981 114.935035,1.81092607 108.93049,5.27838132 L20.2439222,56.4813696 C8.23383658,63.415284 0.835735409,76.2292296 0.835735409,90.0960623 L0.835735409,192.503035 C0.835735409,206.370864 8.23383658,219.184809 20.2439222,226.117728 L108.93049,277.321712 C114.935035,280.788171 121.636856,282.521401 128.337681,282.521401 C135.039502,282.521401 141.740327,280.788171 147.745868,277.321712 L236.432436,226.117728 C248.442521,219.184809 255.840623,206.370864 255.840623,192.503035 L255.840623,90.0960623 C255.840623,76.2292296 248.442521,63.415284 236.432436,56.4813696 L147.745868,5.27838132 C141.740327,1.81092607 135.039502,0.0776964981 128.337681,0.0776964981" fill="#FFFFFF"></path>
		<path d="M236.432436,56.4823658 L147.745868,5.27838132 C135.735782,-1.65553307 120.940576,-1.65553307 108.93049,5.27838132 L20.2439222,56.4823658 C8.23383658,63.415284 0.835735409,76.2292296 0.835735409,90.0960623 L0.835735409,192.503035 C0.835735409,206.370864 8.23383658,219.184809 20.2439222,226.117728 L108.93049,277.321712 C120.940576,284.255626 135.735782,284.255626 147.745868,277.321712 L236.432436,226.117728 C248.442521,219.184809 255.840623,206.370864 255.840623,192.503035 L255.840623,90.0960623 C255.840623,76.2292296 248.442521,63.415284 236.432436,56.4823658 L236.432436,56.4823658 Z M243.642272,187.605167 C243.642272,200.145183 236.952405,211.732918 226.091829,218.003424 L145.889121,264.308545 C135.028545,270.579051 121.647813,270.579051 110.787237,264.308545 L30.5845292,218.003424 C19.7239533,211.732918 13.0340856,200.145183 13.0340856,187.605167 L13.0340856,94.9949261 C13.0340856,82.4539144 19.7239533,70.866179 30.5845292,64.5966693 L110.787237,18.2915486 C121.647813,12.0210428 135.028545,12.0210428 145.889121,18.2915486 L226.091829,64.5966693 C236.952405,70.866179 243.642272,82.4539144 243.642272,94.9949261 L243.642272,187.605167 L243.642272,187.605167 Z" fill="#298AEC"></path>
		<path d="M73.6801868,109.915642 L186.665837,109.915642 L186.665837,119.820949 L73.6801868,119.820949 L73.6801868,109.915642 Z" fill="#44546C"></path>
		<path d="M73.6801868,143.223533 L186.665837,143.223533 L186.665837,153.12884 L73.6801868,153.12884 L73.6801868,143.223533 Z" fill="#44546C"></path>
		<path d="M73.6801868,176.422848 L186.665837,176.422848 L186.665837,186.328156 L73.6801868,186.328156 L73.6801868,176.422848 Z" fill="#44546C"></path>
	</g>
</svg>

<svg width="256" height="283" xmlns="http://www.w3.org/2000/svg" preserveAspectRatio="xMidYMid"><path d="M128.338.078a38.792 38.792 0 00-19.408 5.2L20.244 56.481A38.815 38.815 0 00.836 90.096v102.407a38.813 38.813 0 0019.408 33.615l88.686 51.204a38.793 38.793 0 0019.408 5.2 38.797 38.797 0 0019.408-5.2l88.686-51.204a38.813 38.813 0 0019.409-33.615V90.096a38.815 38.815 0 00-19.409-33.615L147.746 5.278a38.788 38.788 0 00-19.408-5.2" fill="#FFF"/><path d="M236.432 56.482L147.746 5.278a38.814 38.814 0 00-38.816 0L20.244 56.482A38.812 38.812 0 00.836 90.096v102.407a38.813 38.813 0 0019.408 33.615l88.686 51.204a38.814 38.814 0 0038.816 0l88.686-51.204a38.813 38.813 0 0019.409-33.615V90.096a38.812 38.812 0 00-19.409-33.614zm7.21 131.123a35.1 35.1 0 01-17.55 30.398l-80.203 46.306a35.101 35.101 0 01-35.102 0l-80.202-46.306a35.101 35.101 0 01-17.55-30.398v-92.61a35.099 35.099 0 0117.55-30.398l80.202-46.305a35.101 35.101 0 0135.102 0l80.203 46.305a35.099 35.099 0 0117.55 30.398v92.61z" fill="#298AEC"/><path d="M73.68 109.916h112.986v9.905H73.68v-9.905zm0 33.308h112.986v9.905H73.68v-9.905zm0 33.199h112.986v9.905H73.68v-9.905z" fill="#44546C"/></svg>
